svg/other/face_mask_line.svg

<?xml version="1.0" encoding="UTF-8"?>
<svg width="24px" height="24px" viewBox="0 0 24 24" version="1.1" xmlns="http://www.w3.org/2000/svg" xmlns:xlink="http://www.w3.org/1999/xlink">
    <title>face_mask_line</title>
    <g id="Icon" stroke="none" stroke-width="1" fill="none" fill-rule="evenodd">
        <g id="Business" transform="translate(-432.000000, -480.000000)" fill-rule="nonzero">
            <g id="face_mask_line" transform="translate(432.000000, 480.000000)">
                <path d="M24,0 L24,24 L0,24 L0,0 L24,0 Z M12.5935,23.2578 L12.5819,23.2595 L12.5109,23.295 L12.4919,23.2987 L12.4767,23.295 L12.4057,23.2595 C12.3958,23.2564 12.387,23.259 12.3821,23.2649 L12.378,23.2758 L12.3609,23.7031 L12.3659,23.7235 L12.3769,23.7357 L12.4805,23.8097 L12.4953,23.8136 L12.5071,23.8097 L12.6107,23.7357 L12.6233,23.7197 L12.6267,23.7031 L12.6096,23.2758 C12.6076,23.2657 12.601,23.2593 12.5935,23.2578 Z M12.8584,23.1453 L12.8445,23.1473 L12.6598,23.2397 L12.6499,23.2499 L12.6472,23.2611 L12.6651,23.6906 L12.6699,23.7034 L12.6784,23.7105 L12.8793,23.8032 C12.8914,23.8069 12.9022,23.803 12.9078,23.7952 L12.9118,23.7812 L12.8777,23.1665 C12.8753,23.1546 12.8674,23.147 12.8584,23.1453 Z M12.143,23.1473 C12.1332,23.1424 12.1222,23.1453 12.1156,23.1526 L12.1099,23.1665 L12.0758,23.7812 C12.0751,23.7927 12.0828,23.8019 12.0926,23.8046 L12.1083,23.8032 L12.3092,23.7105 L12.3186,23.7024 L12.3225,23.6906 L12.3404,23.2611 L12.3372,23.2485 L12.3278,23.2397 L12.143,23.1473 Z" id="MingCute"></path>
                <path d="M12.5494,4.11699 L17.6678,5.57938 C18.8512,5.9175 19.6855,6.93292 19.8236,8.11448 C21.08,8.47239 22,9.62876 22,11 L22,12 C22,13.8562 20.7357,15.417 19.0214,15.8684 C18.6254,17.1653 17.7132,18.2614 16.4753,18.8804 L13.3416,20.4472 C12.4971,20.8695 11.5029,20.8695 10.6584,20.4472 L7.52471,18.8804 C6.28677,18.2614 5.37459,17.1653 4.97864,15.8684 C3.26426,15.417 2,13.8562 2,12 L2,11 C2,9.62877 2.92001,8.47239 4.17645,8.11447 C4.31452,6.93292 5.14878,5.9175 6.3322,5.57938 L11.4506,4.11699 C11.8097,4.01439 12.1903,4.01439 12.5494,4.11699 Z M12,6.04004 L6.88165,7.50243 C6.41651,7.63532 6.1132,8.08211 6.16133,8.56345 L6.77566,14.7068 C6.87809,15.731 7.49847,16.6312 8.41913,17.0916 L11.5528,18.6584 C11.8343,18.7991 12.1657,18.7991 12.4472,18.6584 L15.5809,17.0916 C16.5015,16.6312 17.1219,15.731 17.2243,14.7068 L17.8387,8.56345 C17.8868,8.08211 17.5835,7.63532 17.1184,7.50243 L12,6.04004 Z M15,13 C15.5523,13 16,13.4477 16,14 C16,14.51285 15.613973,14.9355092 15.1166239,14.9932725 L15,15 L9,15 C8.44772,15 8,14.5523 8,14 C8,13.48715 8.38604429,13.0644908 8.88337975,13.0067275 L9,13 L15,13 Z M19.6785,10.2654 L19.3582,13.4682 C19.7529,13.1028 20,12.5803 20,12 L20,11 C20,10.7096 19.8762,10.4481 19.6785,10.2654 Z M4.32155,10.2654 C4.15206714,10.422 4.03688551,10.6364939 4.00743531,10.8774577 L4,11 L4,12 C4,12.5158222 4.19524741,12.9859753 4.51586019,13.3407177 L4.64183,13.4682 L4.32155,10.2654 Z M15,10 C15.5523,10 16,10.4477 16,11 C16,11.5523 15.5523,12 15,12 L9,12 C8.44772,12 8,11.5523 8,11 C8,10.4477 8.44772,10 9,10 L15,10 Z" id="形状" fill="#09244B"></path>
            </g>
        </g>
    </g>
</svg>

<svg xmlns="http://www.w3.org/2000/svg" width="24" height="24"><g fill="none" fill-rule="nonzero"><path d="M24 0v24H0V0h24ZM12.594 23.258l-.012.002-.071.035-.02.004-.014-.004-.071-.036c-.01-.003-.019 0-.024.006l-.004.01-.017.428.005.02.01.013.104.074.015.004.012-.004.104-.074.012-.016.004-.017-.017-.427c-.002-.01-.009-.017-.016-.018Zm.264-.113-.014.002-.184.093-.01.01-.003.011.018.43.005.012.008.008.201.092c.012.004.023 0 .029-.008l.004-.014-.034-.614c-.003-.012-.01-.02-.02-.022Zm-.715.002a.023.023 0 0 0-.027.006l-.006.014-.034.614c0 .012.007.02.017.024l.015-.002.201-.093.01-.008.003-.011.018-.43-.003-.012-.01-.01-.184-.092Z"/><path fill="#09244B" d="m12.55 4.117 5.118 1.462a3 3 0 0 1 2.156 2.535A3.001 3.001 0 0 1 22 11v1a4.002 4.002 0 0 1-2.979 3.868 5 5 0 0 1-2.546 3.012l-3.133 1.567a3 3 0 0 1-2.684 0L7.525 18.88a5 5 0 0 1-2.546-3.012A4.002 4.002 0 0 1 2 12v-1c0-1.371.92-2.528 2.176-2.886A3 3 0 0 1 6.332 5.58l5.119-1.462a2 2 0 0 1 1.098 0ZM12 6.04 6.882 7.502a1 1 0 0 0-.72 1.061l.614 6.144a3 3 0 0 0 1.643 2.385l3.134 1.566a1 1 0 0 0 .894 0l3.134-1.566a3 3 0 0 0 1.643-2.385l.615-6.144a1 1 0 0 0-.72-1.06L12 6.04ZM15 13a1 1 0 0 1 .117 1.993L15 15H9a1 1 0 0 1-.117-1.993L9 13h6Zm4.679-2.735-.32 3.203c.394-.365.641-.888.641-1.468v-1a.997.997 0 0 0-.322-.735Zm-15.357 0a.998.998 0 0 0-.315.612L4 11v1c0 .516.195.986.516 1.34l.126.128-.32-3.203ZM15 10a1 1 0 1 1 0 2H9a1 1 0 1 1 0-2h6Z"/></g></svg>
